X:1
T:Psalm 80
T:V 1
L:1/4
M:14/4
I:linebreak $
K:F
V:1 treble nm="Pipe Organ" snm="Org."
V:1
 D2 D C D F G F E2 D3 z |$ A2 G E G E D F E2 D3 z |$ A2 c d A2 F2 G G A3 z |$ %3
w: O Her- der Is- r'els, neem ter o- re,|wat Jo- sefs kroos, deur U ver- ko- re,|soos ska- pe rus- tig wil laat wei,|
 A2 c d A2 F2 G G A3 z |$ A2 c =B A G2 F2 E F3 z |$[M:16/4] B2 G2 A2 F D G2 E2 D4 |] %6
w: of deur ge- va- re heen wil lei;|U wat u troon op ge- rubs stig-|ver- skyn weer blin- kend in u lig!|

